packages/icons/svg/32/Shopping.svg

<svg width="32" height="32" viewBox="0 0 32 32" fill="none" xmlns="http://www.w3.org/2000/svg">
<path fill-rule="evenodd" clip-rule="evenodd" d="M11.1 8C11.5633 5.71776 13.581 4 16 4C18.419 4 20.4367 5.71776 20.9 8H22C24.2091 8 26 9.79086 26 12V23C26 25.2091 24.2091 27 22 27H10C7.79086 27 6 25.2091 6 23V12C6 9.79086 7.79086 8 10 8H11.1ZM13.1707 8C13.5825 6.83481 14.6938 6 16 6C17.3062 6 18.4175 6.83481 18.8293 8H13.1707ZM11 10V13C11 13.5523 11.4477 14 12 14C12.5523 14 13 13.5523 13 13V10H19V13C19 13.5523 19.4477 14 20 14C20.5523 14 21 13.5523 21 13V10H22C23.1046 10 24 10.8954 24 12V23C24 24.1046 23.1046 25 22 25H10C8.89543 25 8 24.1046 8 23V12C8 10.8954 8.89543 10 10 10H11Z" fill="#858585"/>
</svg>

<svg width="32" height="32" fill="none" xmlns="http://www.w3.org/2000/svg" viewBox="0 0 32 32"><path fill-rule="evenodd" clip-rule="evenodd" d="M11.1 8a5.002 5.002 0 019.8 0H22a4 4 0 014 4v11a4 4 0 01-4 4H10a4 4 0 01-4-4V12a4 4 0 014-4h1.1zm2.07 0a3.001 3.001 0 015.66 0h-5.66zM11 10v3a1 1 0 102 0v-3h6v3a1 1 0 102 0v-3h1a2 2 0 012 2v11a2 2 0 01-2 2H10a2 2 0 01-2-2V12a2 2 0 012-2h1z" fill="currentColor"></path></svg>
